X:0147
T:Shiling O'Gairey
T:Sheling a Gairey
N:second title is as in the index
T:Chiling O Guiry
T:Shulen a Gurie
N:and an unbelievable number of alternate attempts to spell it
M:6/8
L:1/8
Q:3/8=120
I: :: ::
Z:Jack Campin * www.campin.me.uk * 2009
K:G
GBB Acc|GBB  c2d|BGG cAd|BGG G3:|
GBd g2f|ecc Tc3 |Ace a2g|fdd d2G|
GBd g2f|ecc  d2c|BGG cAd|BGG G3:|
<end>
<start>
